usr/share/icons/biglinux-icons-material/24/actions/distribute-vertical.svg

<svg xmlns="http://www.w3.org/2000/svg" viewBox="0 0 24 24"><path d="M8 4v5h8V4H8zm1 1h6v3H9V5zm1 5v1h1v2h-1v1h4v-1h-1v-2h1v-1h-4zm-2 5v5h8v-5H8zm1 1h6v3H9v-3z" style="fill:currentColor;fill-opacity:1;stroke:none;color:#dedede"/></svg>

<svg xmlns="http://www.w3.org/2000/svg" viewBox="0 0 24 24">
  <defs id="defs3051">
    <style type="text/css" id="current-color-scheme">
      .ColorScheme-Text {
        color:#dedede;
      }
      </style>
  </defs>
 <path style="fill:currentColor;fill-opacity:1;stroke:none" 
     d="M 8 4 L 8 9 L 16 9 L 16 4 L 8 4 z M 9 5 L 15 5 L 15 8 L 9 8 L 9 5 z M 10 10 L 10 11 L 11 11 L 11 13 L 10 13 L 10 14 L 14 14 L 14 13 L 13 13 L 13 11 L 14 11 L 14 10 L 10 10 z M 8 15 L 8 20 L 16 20 L 16 15 L 8 15 z M 9 16 L 15 16 L 15 19 L 9 19 L 9 16 z "
     class="ColorScheme-Text"
     />
</svg>
